assets/Trident emblem/Flat/trident_emblem_flat.svg

<svg width="32" height="32" viewBox="0 0 32 32" fill="none" xmlns="http://www.w3.org/2000/svg">
<path d="M27.3661 11.1529C26.0248 9.99783 25.204 8.38069 25.0839 6.67314H27.0959C27.5463 6.67314 27.7465 6.10061 27.3962 5.80933L22.9217 2.27371C22.5513 1.98242 22.0208 2.24358 22.0208 2.70562L22.0308 6.6631C22.0308 9.43534 23.242 11.6351 25.3842 13.4732C26.6855 14.5981 27.4462 16.2253 27.4662 17.9429C27.4863 19.5199 26.8757 21.0265 25.7445 22.1616C24.5934 23.3367 23.0518 23.9796 21.4302 23.9796C19.4282 23.9796 17.7965 22.3524 17.7965 20.3335V6.67314H18.9177C19.4082 6.67314 19.6884 6.10061 19.3881 5.70888L16.7555 2.2938C16.4552 1.90207 15.8746 1.90207 15.5743 2.2938L12.9417 5.70888C12.6414 6.10061 12.9217 6.67314 13.4121 6.67314H14.7435V20.3536C14.7435 22.3624 13.1219 23.9997 11.1098 23.9997C9.4782 23.9997 7.94667 23.3568 6.79551 22.1816C5.66438 21.0366 5.05377 19.54 5.07379 17.963C5.09381 16.2454 5.85457 14.6082 7.15588 13.4933C9.278 11.6451 10.4892 9.43534 10.4892 6.67314L10.4992 2.70562C10.4992 2.24358 9.9687 1.98242 9.59832 2.26366L5.12384 5.80933C4.76348 6.09057 4.96368 6.67314 5.42414 6.67314H7.43616C7.30603 8.38069 6.49521 9.99783 5.14386 11.1529C3.17188 12.8504 2.03073 15.3213 2.0007 17.9228C1.97067 20.3234 2.90161 22.6035 4.60331 24.3311C6.33505 26.0889 8.63736 27.0632 11.0898 27.0632H14.7235V28.6H17.7765V27.0632H21.4102C23.8626 27.0632 26.1649 26.099 27.8967 24.3311C29.6084 22.6035 30.5293 20.3234 30.4993 17.9228C30.4893 15.3213 29.3381 12.8504 27.3661 11.1529Z" fill="#FFB02E"/>
<path d="M19.4971 30H12.5029C11.6778 30 11 29.3333 11 28.5C11 27.6765 11.668 27 12.5029 27H19.4971C20.3222 27 21 27.6667 21 28.5C20.9902 29.3333 20.3222 30 19.4971 30Z" fill="#FF9F2E"/>
</svg>

<svg xmlns="http://www.w3.org/2000/svg" width="32" height="32" fill="none"><path fill="#FFB02E" d="M27.366 11.153c-1.341-1.155-2.162-2.772-2.282-4.48h2.012c.45 0 .65-.572.3-.864l-4.474-3.535a.554.554 0 0 0-.901.432l.01 3.957c0 2.772 1.211 4.972 3.353 6.81a6.005 6.005 0 0 1 2.082 4.47 5.844 5.844 0 0 1-1.722 4.219 6.01 6.01 0 0 1-4.314 1.818 3.64 3.64 0 0 1-3.633-3.646V6.674h1.12a.6.6 0 0 0 .471-.965l-2.633-3.415a.74.74 0 0 0-1.18 0l-2.633 3.415a.6.6 0 0 0 .47.964h1.331v13.68A3.64 3.64 0 0 1 11.11 24a5.993 5.993 0 0 1-4.314-1.818c-1.132-1.145-1.742-2.642-1.722-4.219a5.99 5.99 0 0 1 2.082-4.47c2.122-1.848 3.333-4.058 3.333-6.82l.01-3.967a.56.56 0 0 0-.9-.442L5.123 5.809c-.36.282-.16.864.3.864h2.012a6.555 6.555 0 0 1-2.292 4.48A9.071 9.071 0 0 0 2 17.923c-.03 2.4.9 4.68 2.602 6.408 1.732 1.758 4.034 2.732 6.487 2.732h3.633V28.6h3.053v-1.537h3.634a9.008 9.008 0 0 0 6.487-2.732 8.892 8.892 0 0 0 2.602-6.408 8.992 8.992 0 0 0-3.133-6.77Z"/><path fill="#FF9F2E" d="M19.497 30h-6.994A1.501 1.501 0 0 1 11 28.5c0-.823.668-1.5 1.503-1.5h6.994c.825 0 1.503.667 1.503 1.5-.01.833-.678 1.5-1.503 1.5Z"/></svg>
